lib/flags/s/MY.svg

<svg xmlns="http://www.w3.org/2000/svg" fill="none" viewBox="0 0 16 12"><mask id="MY_svg__a" width="16" height="12" x="0" y="0" mask-type="alpha" maskUnits="userSpaceOnUse"><path fill="#fff" d="M0 0H16V12H0z"/></mask><g mask="url(#MY_svg__a)"><path fill="#F7FCFF" fill-rule="evenodd" d="M0 0H16V12H0V0Z" clip-rule="evenodd"/><path fill="#E31D1C" d="M.014 2.5H16.014V3.95H.014z"/><path fill="#E31D1C" d="M.014 5.1H16.014V6.55H.014z"/><path fill="#E31D1C" d="M.056 7.6H16.056V8.85H.056z"/><path fill="#E31D1C" d="M.056 10.1H16.056V11.45H.056z"/><path fill="#E31D1C" fill-rule="evenodd" d="M0 0H16V1.25H0V0Z" clip-rule="evenodd"/><path fill="#3D58DB" fill-rule="evenodd" d="M0 0H8V6H0V0Z" clip-rule="evenodd"/><path fill="#FECA00" fill-rule="evenodd" d="M1.79677 3.10108C1.79677 3.78919 2.12088 4.4399 2.78025 4.4399C3.76954 4.4399 3.96201 4.22899 4.42363 3.938C4.53277 4.18314 4.16465 5.23219 2.76675 5.23219C1.64862 5.20968 0.74501 4.31141 0.74501 3.10108C0.74501 1.71182 1.7668 0.961548 2.73869 0.970042C3.59671 0.970042 4.50672 1.45692 4.47884 2.07803C4.07456 1.68311 3.63559 1.68311 2.90485 1.68311C2.1741 1.68311 1.79677 2.41288 1.79677 3.10108Z" clip-rule="evenodd"/><path fill="#FECA00" fill-rule="evenodd" d="M5.5 3.65002L5.03647 4.32661L5.05916 3.50679L4.28647 3.7817L4.78671 3.13179L4 2.90002L4.78671 2.66826L4.28647 2.01835L5.05916 2.29326L5.03647 1.47344L5.5 2.15002L5.96353 1.47344L5.94084 2.29326L6.71353 2.01835L6.21329 2.66826L7 2.90002L6.21329 3.13179L6.71353 3.7817L5.94084 3.50679L5.96353 4.32661L5.5 3.65002Z" clip-rule="evenodd"/></g></svg>

<svg xmlns="http://www.w3.org/2000/svg" fill="none" viewBox="0 0 16 12"><mask id="MY_svg__a" width="16" height="12" x="0" y="0" maskUnits="userSpaceOnUse"><path fill="#fff" d="M0 0h16v12H0z"/></mask><g mask="url(#MY_svg__a)"><path fill="#F7FCFF" fill-rule="evenodd" d="M0 0h16v12H0V0z" clip-rule="evenodd"/><path fill="#E31D1C" d="M.014 2.5h16v1.45h-16zm0 2.6h16v1.45h-16zm.042 2.5h16v1.25h-16zm0 2.5h16v1.35h-16z"/><path fill="#E31D1C" fill-rule="evenodd" d="M0 0h16v1.25H0V0z" clip-rule="evenodd"/><path fill="#3D58DB" fill-rule="evenodd" d="M0 0h8v6H0V0z" clip-rule="evenodd"/><path fill="#FECA00" fill-rule="evenodd" d="M1.797 3.101c0 .688.324 1.339.983 1.339.99 0 1.182-.211 1.644-.502.109.245-.26 1.294-1.657 1.294C1.649 5.21.745 4.312.745 3.102c0-1.39 1.022-2.14 1.994-2.132.858 0 1.768.487 1.74 1.108-.404-.395-.843-.395-1.574-.395-.73 0-1.108.73-1.108 1.418z" clip-rule="evenodd"/><path fill="#FECA00" fill-rule="evenodd" d="M5.5 3.65l-.464.677.023-.82-.773.275.5-.65L4 2.9l.787-.232-.5-.65.772.275-.023-.82.464.677.464-.677-.023.82.773-.275-.5.65L7 2.9l-.787.232.5.65-.772-.275.023.82L5.5 3.65z" clip-rule="evenodd"/></g></svg>
